X:219
T:Steirische Jodler und Taenze Nr. 1 - 48 (17.)
C:traditionell
A:Salzkammergut
S:MIDI erhalten von Christian Amon. Nach einer kopie im besitz von Johann Stoeckl eines manuscriptes. Stoeckl(zitiert von Amon): "diese sammlung wurde 1935 im hause der familie Hohenlohe-Schillingfuerst gefunden. Sie wurde von einem der beiden brueder Steinegger 1866 verfasst. Die originale sind im Ausseer Kammerhofmuseum".
M:3/4
L:1/8
K:G
V:1
dd |\
gd B2 dd | af d2 dd | ad dc' ba | gd B2 dd |\
gd B2 dd | af d2 dd | ad dc' ba | g4 |*
V:2
gg |\
bg d2 gg | c'a f2 ff | c'a fe' d'c' | bg d2 gg |\
bg d2 gg | c'a f2 ff | c'a fe' d'c' | b4 |*
